static/assets/images/icons/filter-off.svg

<svg width="256" height="256" viewBox="0 0 256 256" fill="none" xmlns="http://www.w3.org/2000/svg">
<path d="M53.219 44.3576C50.6372 44.3576 48.1612 45.387 46.3356 47.2194C44.51 49.0518 43.4844 51.537 43.4844 54.1284V79.4345C43.4844 84.5446 45.5579 89.5668 49.1597 93.182L101.892 146.11V220.231C101.894 221.895 102.319 223.532 103.127 224.986C103.936 226.439 105.1 227.662 106.511 228.537C107.921 229.413 109.531 229.913 111.188 229.99C112.844 230.066 114.493 229.717 115.978 228.975L154.917 209.434C158.217 207.773 160.3 204.392 160.3 200.689V146.11L161.875 144.529L148.065 130.758L81.0141 63.8991L61.4166 44.3576H53.219Z" fill="black"/>
<path d="M171.379 129.752L187.377 145.714L211.717 169.999C216.058 174.331 223.097 174.331 227.438 170C231.78 165.668 231.78 158.645 227.439 154.313L209.766 136.68L189.671 116.63L117.205 44.3576C117.205 44.3576 109.636 36.8205 106.135 33.3373L78.986 6.4432C74.7011 2.1986 67.792 2.1808 63.4852 6.40328C59.1136 10.6893 59.0828 17.7094 63.4166 22.0335L84.251 42.8209L99.1698 57.706L124.128 82.6076L149.024 107.447L171.379 129.752Z" fill="black"/>
<path d="M213.032 93.182C216.634 89.5668 218.707 84.5446 218.707 79.4345V54.1284C218.707 51.537 217.682 49.0518 215.856 47.2194C214.031 45.387 211.555 44.3576 208.973 44.3576H117.205L189.671 116.63L213.032 93.182Z" fill="black"/>
</svg>

<svg xmlns="http://www.w3.org/2000/svg" fill="none" viewBox="0 0 256 256"><path fill="#000" d="M53.219 44.358a9.72 9.72 0 0 0-6.883 2.861 9.8 9.8 0 0 0-2.852 6.91v25.306c0 5.11 2.074 10.132 5.676 13.747l52.732 52.928v74.121a9.8 9.8 0 0 0 1.235 4.755 9.8 9.8 0 0 0 3.384 3.551 9.7 9.7 0 0 0 4.677 1.453 9.7 9.7 0 0 0 4.79-1.015l38.939-19.541a9.79 9.79 0 0 0 5.383-8.745V146.11l1.575-1.581-13.81-13.771-67.05-66.859-19.598-19.541zm118.16 85.394 15.998 15.962 24.34 24.285c4.341 4.332 11.38 4.332 15.721.001a11.075 11.075 0 0 0 .001-15.687l-17.673-17.633-20.095-20.05-72.466-72.272s-7.569-7.537-11.07-11.02L78.986 6.442c-4.285-4.244-11.194-4.262-15.5-.04-4.372 4.286-4.403 11.306-.07 15.63L84.251 42.82 99.17 57.706l24.958 24.902 24.896 24.839z"/><path fill="#000" d="M213.032 93.182c3.602-3.615 5.675-8.637 5.675-13.748V54.129a9.8 9.8 0 0 0-2.851-6.909 9.7 9.7 0 0 0-6.883-2.861h-91.768l72.466 72.272z"/></svg>
